X:440
T:Boda Polska
L:1/8
M:3/4
O:Sweden
R:Polska
R:Hambo
Z:Carol Turner
%%TUNEURL: http://www.leeds.ac.uk/music/Info/RRTuneBk/gettune/00000ba3.html
%%ID:00000ba3
K:D
Ad2c d>e | ff2e d>f | aa2^g/2a/2 ba | ag2f e>d |\
cB A4 | Ad2c d>e | ff2e d>f | aa2^g/2a/2 ba | \
ag2f e>d | cB/2c/2 d4:: \
FF2A, D>F | AG2BA2 | FF2A, D>F | AG2BA2 | A>c d>f e>d | cB/2c/2 d4:|
